assets/icons/rule-and-pen-filled.svg

<?xml version="1.0" encoding="UTF-8" standalone="no"?>
<svg
   viewBox="0 0 24 24"
   height="24"
   width="24"
   version="1.1"
   id="svg8"
   sodipodi:docname="rule-and-pen-filled.svg"
   inkscape:version="1.2 (1:1.2.1+202207142221+cd75a1ee6d)"
   xmlns:inkscape="http://www.inkscape.org/namespaces/inkscape"
   xmlns:sodipodi="http://sodipodi.sourceforge.net/DTD/sodipodi-0.dtd"
   xmlns="http://www.w3.org/2000/svg"
   xmlns:svg="http://www.w3.org/2000/svg">
  <defs
     id="defs12" />
  <sodipodi:namedview
     id="namedview10"
     pagecolor="#ffffff"
     bordercolor="#666666"
     borderopacity="1.0"
     inkscape:pageshadow="2"
     inkscape:pageopacity="0.0"
     inkscape:pagecheckerboard="0"
     showgrid="true"
     inkscape:zoom="28"
     inkscape:cx="-2.4285714"
     inkscape:cy="14.035714"
     inkscape:window-width="1920"
     inkscape:window-height="1043"
     inkscape:window-x="0"
     inkscape:window-y="0"
     inkscape:window-maximized="1"
     inkscape:current-layer="svg8"
     inkscape:showpageshadow="2"
     inkscape:deskcolor="#d1d1d1">
    <inkscape:grid
       type="xygrid"
       id="grid8" />
    <inkscape:grid
       type="xygrid"
       id="grid1014"
       dotted="true"
       spacingx="0.5"
       spacingy="0.5"
       empspacing="10" />
  </sodipodi:namedview>
  <path
     id="path291"
     style="fill:#808080;fill-rule:evenodd;stroke:none;stroke-linecap:square;stroke-linejoin:round"
     d="M 14.5 2 C 14.25 2 14.056292 1.9985204 13.867188 2.0195312 C 13.678081 2.0405432 13.451835 2.0911336 13.271484 2.2714844 C 13.091135 2.4518349 13.040543 2.678081 13.019531 2.8671875 C 12.998521 3.056294 13 3.2500007 13 3.5 L 13 15.595703 L 15.5 21.845703 L 18 15.595703 L 18 3.5 C 18 3.2500007 18.001499 3.056294 17.980469 2.8671875 C 17.959459 2.678081 17.908867 2.4518349 17.728516 2.2714844 C 17.548165 2.0911338 17.321919 2.040543 17.132812 2.0195312 C 16.943709 1.9985194 16.75 2 16.5 2 L 14.5 2 z M 14.5 3 L 16.5 3 C 16.733217 3 16.891306 3.0031398 16.988281 3.0117188 C 16.996881 3.1086936 17 3.2667833 17 3.5 L 17 6 L 14 6 L 14 3.5 C 14 3.2667833 14.003099 3.108694 14.011719 3.0117188 C 14.108699 3.0031388 14.266783 3 14.5 3 z M 14.238281 16 L 16.761719 16 L 15.5 19.152344 L 14.238281 16 z " />
  <path
     id="rect32"
     style="fill:#808080;fill-rule:evenodd;stroke:none;stroke-linecap:square;stroke-linejoin:round"
     d="m 12,2 v 19 h -6 v -19 z m -1,2 h -2 v 1 h 2 z m 0,2 h -2 v 1 h 2 z m 0,2 h -2 v 1 h 2 z m 0,2 h -2 v 1 h 2 z m 0,2 h -2 v 1 h 2 z m 0,2 h -2 v 1 h 2 z m 0,2 h -2 v 1 h 2 z m 0,2 h -2 v 1 h 2 z"
     sodipodi:nodetypes="ccccccccccccccccccccccccccccccccccccccccccccc" />
</svg>

<svg height="24" width="24" xmlns="http://www.w3.org/2000/svg"><path style="fill:gray;stroke:none;stroke-linecap:square;stroke-linejoin:round" d="M14.5 2c-.25 0-.444-.001-.633.02-.189.02-.415.071-.596.251-.18.18-.23.407-.251.596-.021.19-.02.383-.02.633v12.096l2.5 6.25 2.5-6.25V3.5c0-.25.001-.444-.02-.633-.02-.189-.071-.415-.251-.596-.18-.18-.407-.23-.596-.251-.19-.021-.383-.02-.633-.02h-2zm0 1h2c.233 0 .391.003.488.012.009.097.012.255.012.488V6h-3V3.5a6.4 6.4 0 0 1 .012-.488c.097-.009.255-.012.488-.012zm-.262 13h2.524L15.5 19.152 14.238 16zM12 2v19H6V2zm-1 2H9v1h2zm0 2H9v1h2zm0 2H9v1h2zm0 2H9v1h2zm0 2H9v1h2zm0 2H9v1h2zm0 2H9v1h2zm0 2H9v1h2z"/></svg>
